dhis-2/dhis-support/dhis-support-system/src/main/resources/SVGs/pills_3_outline.svg

<svg width="48" height="48" viewBox="0 0 48 48" fill="none" xmlns="http://www.w3.org/2000/svg">
<path fill-rule="evenodd" clip-rule="evenodd" d="M24.4787 4.06243C23.8467 4.08103 23.8577 4.53073 23.8727 4.95112L24.4897 22.0589C24.5077 22.5349 24.6946 22.9849 25.5056 22.8549C28.3496 22.3089 30.7116 20.5109 32.0426 18.084C32.8415 16.627 33.2705 14.946 33.2085 13.172C33.0305 8.43268 29.4076 4.60353 24.7906 4.08213C24.6726 4.06593 24.5686 4.05993 24.4787 4.06263V4.06243ZM22.2047 4.16013C22.1217 4.15923 22.0287 4.16713 21.9257 4.18353C17.3657 5.05072 14.0368 9.13338 14.2048 13.8688C14.3818 18.5948 17.9847 22.4157 22.5817 22.9547C23.0807 23.0277 23.3237 22.9317 23.4407 22.7497C23.5587 22.5677 23.5487 22.3007 23.5387 22.0327L22.9237 5.00992C22.9077 4.57053 22.7877 4.16633 22.2047 4.16013ZM24.6616 4.60543C24.7736 4.60463 24.9306 4.61953 25.1446 4.64833C29.3166 5.10992 32.5655 8.92767 32.7145 13.2288C32.7665 14.8388 32.3746 16.3628 31.6476 17.6878C30.4386 19.8927 28.5446 21.7157 25.9726 22.2187C25.2396 22.3387 25.0146 22.2657 24.9996 21.8337L24.3907 5.07792C24.3797 4.75103 24.3267 4.60783 24.6616 4.60543ZM21.9277 4.70113C22.3007 4.69133 22.4317 4.81273 22.4427 5.13662L23.0507 21.8924C23.0577 22.1104 23.0827 22.2464 22.9997 22.3134C22.9167 22.3814 22.7267 22.3794 22.2987 22.3214C18.1267 21.8604 14.8748 18.0445 14.7268 13.7435C14.6748 12.1335 15.0648 10.6066 15.7908 9.28277C17.0007 7.0768 18.8967 5.25442 21.4687 4.75163C21.6517 4.72163 21.8027 4.70403 21.9277 4.70083V4.70113ZM13.3868 24.9669C12.8208 24.9729 12.2498 25.0309 11.6798 25.1429C10.7368 25.3039 10.9068 25.7929 11.0678 26.2459L16.8007 42.3767C16.9607 42.8257 17.2737 43.1976 18.0077 42.8297C20.5557 41.4537 22.2687 39.0297 22.8087 36.3137C23.1327 34.6848 23.0347 32.9508 22.4407 31.2768C21.0457 27.3688 17.3447 24.9209 13.3868 24.9669ZM34.7225 25.0059C33.0615 24.9559 31.3676 25.3389 29.8156 26.2009C25.6746 28.5128 23.9127 33.4798 25.5466 37.8297C25.8616 38.7327 26.3156 38.4857 26.7356 38.2517L41.6944 29.9278C42.1104 29.6958 42.4264 29.3248 41.9424 28.6618C40.1635 26.3769 37.4895 25.0889 34.7225 25.0059ZM13.7318 25.4299C17.3237 25.4489 20.7317 27.9308 21.9877 31.4798C22.5217 32.9998 22.6087 34.5728 22.3137 36.0547C21.8237 38.5217 20.5627 40.8307 18.2617 42.0837C17.5987 42.4187 17.3627 42.4167 17.2187 42.0097L11.5998 26.2129C11.4538 25.8009 11.3358 25.7239 12.1878 25.5759C12.7018 25.4739 13.2188 25.4269 13.7318 25.4299ZM34.5485 25.5369C37.0635 25.6119 39.5465 26.4729 41.1634 28.5348C41.6034 29.1338 41.6414 29.3668 41.2634 29.5758L26.6146 37.7317C26.2336 37.9437 26.1766 38.0727 25.8906 37.2577C24.4057 33.3308 26.3276 28.7018 30.0916 26.6149C31.5016 25.8369 33.0385 25.4919 34.5485 25.5369ZM9.45884 25.9509C9.32434 25.9599 9.16514 26.0059 8.97835 26.0999C4.8902 28.2978 2.94452 33.1938 4.5292 37.6597C6.11898 42.1137 10.7038 44.6726 15.2501 43.8046C15.7471 43.7236 15.9511 43.5576 16.0081 43.3496C16.0651 43.1406 15.9761 42.8907 15.8871 42.6387L10.1801 26.5879C10.0541 26.2329 9.86264 25.9249 9.45914 25.9509H9.45884ZM9.43144 26.5389C9.59184 26.5489 9.68764 26.6499 9.75964 26.8539L15.3788 42.6497C15.4508 42.8557 15.5158 42.9786 15.4568 43.0676C15.3978 43.1576 15.2168 43.2126 14.7908 43.2866C10.6728 44.1016 6.42338 41.4417 4.9882 37.3847C4.4543 35.8647 4.3677 34.2898 4.662 32.8088C5.15209 30.3408 6.41318 28.0318 8.71465 26.7789C9.04615 26.6119 9.27104 26.5299 9.43144 26.5389ZM42.786 30.5488C42.571 30.5268 42.338 30.6568 42.104 30.7868L27.2202 39.0697C26.7812 39.3137 26.4452 39.6607 26.9372 40.3357C29.7812 44.0036 34.9311 45.1126 39.0731 42.8106C43.202 40.5057 44.969 35.5607 43.36 31.2208C43.198 30.7438 43.001 30.5708 42.786 30.5488ZM42.599 31.1388C42.696 31.1818 42.782 31.3518 42.925 31.7598C44.41 35.6857 42.489 40.3167 38.7261 42.4037C37.3151 43.1816 35.7761 43.5276 34.2671 43.4816C31.7522 43.4076 29.2682 42.5467 27.6512 40.4837C27.2112 39.8857 27.1742 39.6507 27.5522 39.4407L42.2 31.2848C42.391 31.1798 42.501 31.0948 42.599 31.1388Z" fill="#333333"/>
</svg>

<?xml version="1.0" encoding="UTF-8" standalone="no"?>
<!-- Created with Inkscape (http://www.inkscape.org/) -->
<svg id="svg8" xmlns:rdf="http://www.w3.org/1999/02/22-rdf-syntax-ns#" xmlns="http://www.w3.org/2000/svg" height="48" viewBox="0 0 12.7 12.7" width="48" version="1.1" xmlns:cc="http://creativecommons.org/ns#" xmlns:dc="http://purl.org/dc/elements/1.1/">
 <title id="title4753">UIO-icon</title>
 <metadata id="metadata5">
  <rdf:RDF>
   <cc:Work rdf:about="">
    <dc:format>image/svg+xml</dc:format>
    <dc:type rdf:resource="http://purl.org/dc/dcmitype/StillImage"/>
    <dc:title>UIO-icon</dc:title>
    <dc:creator>
     <cc:Agent>
      <dc:title>Joaquín Urbano</dc:title>
     </cc:Agent>
    </dc:creator>
    <dc:rights>
     <cc:Agent>
      <dc:title>GPL</dc:title>
     </cc:Agent>
    </dc:rights>
   </cc:Work>
  </rdf:RDF>
 </metadata>
 <path id="path831" d="m24.479 4.0625c-0.632 0.0186-0.621 0.4683-0.606 0.8887l0.617 17.108c0.018 0.476 0.205 0.926 1.016 0.796 2.844-0.546 5.206-2.344 6.537-4.771 0.799-1.457 1.228-3.138 1.166-4.912-0.178-4.7394-3.801-8.5686-8.418-9.09-0.118-0.0162-0.222-0.0222-0.312-0.0195zm-2.274 0.0977c-0.083-0.0009-0.176 0.007-0.279 0.0234-4.56 0.8672-7.889 4.9499-7.721 9.6854 0.177 4.726 3.78 8.547 8.377 9.086 0.499 0.073 0.742-0.023 0.859-0.205 0.118-0.182 0.108-0.449 0.098-0.717l-0.615-17.023c-0.016-0.4394-0.136-0.8436-0.719-0.8498zm2.457 0.4453c0.112-0.0008 0.269 0.0141 0.483 0.0429 4.172 0.4616 7.421 4.2794 7.57 8.5806 0.052 1.61-0.34 3.134-1.067 4.459-1.209 2.205-3.103 4.028-5.675 4.531-0.733 0.12-0.958 0.047-0.973-0.385l-0.609-16.756c-0.011-0.3269-0.064-0.4701 0.271-0.4725zm-2.734 0.0957c0.373-0.0098 0.504 0.1116 0.515 0.4355l0.608 16.756c0.007 0.218 0.032 0.354-0.051 0.421-0.083 0.068-0.273 0.066-0.701 0.008-4.172-0.461-7.424-4.277-7.572-8.578-0.052-1.61 0.338-3.137 1.064-4.4608 1.21-2.206 3.106-4.0284 5.678-4.5312 0.183-0.03 0.334-0.0476 0.459-0.0508zm-8.541 20.266c-0.566 0.006-1.137 0.064-1.707 0.176-0.943 0.161-0.773 0.65-0.612 1.103l5.733 16.131c0.16 0.449 0.473 0.821 1.207 0.453 2.548-1.376 4.261-3.8 4.801-6.516 0.324-1.629 0.226-3.363-0.368-5.037-1.395-3.908-5.096-6.356-9.054-6.31zm21.336 0.039c-1.661-0.05-3.355 0.333-4.907 1.195-4.141 2.312-5.903 7.279-4.269 11.629 0.315 0.903 0.769 0.656 1.189 0.422l14.959-8.324c0.416-0.232 0.732-0.603 0.248-1.266-1.779-2.285-4.453-3.573-7.22-3.656zm-20.991 0.424c3.592 0.019 7 2.501 8.256 6.05 0.534 1.52 0.621 3.093 0.326 4.575-0.49 2.467-1.751 4.776-4.052 6.029-0.663 0.335-0.899 0.333-1.043-0.074l-5.619-15.797c-0.146-0.412-0.264-0.489 0.588-0.637 0.514-0.102 1.031-0.149 1.544-0.146zm20.817 0.107c2.515 0.075 4.998 0.936 6.615 2.998 0.44 0.599 0.478 0.832 0.1 1.041l-14.649 8.156c-0.381 0.212-0.438 0.341-0.724-0.474-1.485-3.927 0.437-8.556 4.201-10.643 1.41-0.778 2.947-1.123 4.457-1.078zm-25.09 0.414c-0.1345 0.009-0.2937 0.055-0.4805 0.149-4.0882 2.198-6.0339 7.094-4.4492 11.56 1.5898 4.454 6.1747 7.013 10.721 6.145 0.497-0.081 0.701-0.247 0.758-0.455 0.057-0.209-0.032-0.459-0.121-0.711l-5.707-16.051c-0.126-0.355-0.3175-0.663-0.721-0.637zm-0.0274 0.588c0.1604 0.01 0.2562 0.111 0.3282 0.315l5.6192 15.796c0.072 0.206 0.137 0.329 0.078 0.418-0.059 0.09-0.24 0.145-0.666 0.219-4.118 0.815-8.3675-1.845-9.8027-5.902-0.5339-1.52-0.6205-3.095-0.3262-4.576 0.4901-2.468 1.7512-4.777 4.0527-6.03 0.3315-0.167 0.5564-0.249 0.7168-0.24zm33.355 4.01c-0.215-0.022-0.448 0.108-0.682 0.238l-14.884 8.283c-0.439 0.244-0.775 0.591-0.283 1.266 2.844 3.668 7.994 4.777 12.136 2.475 4.129-2.305 5.896-7.25 4.287-11.59-0.162-0.477-0.359-0.65-0.574-0.672zm-0.187 0.59c0.097 0.043 0.183 0.213 0.326 0.621 1.485 3.926-0.436 8.557-4.199 10.644-1.411 0.778-2.95 1.124-4.459 1.078-2.515-0.074-4.999-0.935-6.616-2.998-0.44-0.598-0.477-0.833-0.099-1.043l14.648-8.156c0.191-0.105 0.301-0.19 0.399-0.146z" fill-rule="evenodd" transform="scale(.26458)" stroke-width=".99999" fill="#333"/>
</svg>
